X: 131012
T: STOOL OF REPENTANCE
Q: "Scotch Jig."
R: Jig.
%R: jig
B: James Kerr "Merry Melodies" v.1 p.31 s.0 #12
Z: 2016 John Chambers <jc:trillian.mit.edu>
M: 6/8
L: 1/8
K: A
ue |:\
va2ve uc2ue | agf edc | aff uf2ue | fag uf2ue |\
va2ve uc2ue | agf edc | d2e f2e | fac B2A :|
|:\
cAA eAA | cAA edc | dBB fBB | dBB fed |\
cAA eAA | cAA edc | d2e f2e | fac B2A :|

%%sep 1 1 500
%%sep 1 1 500

